X:504
T:The Ewe Reel
N:anon.
O:Ireland
B:Francis O'Neill: "The Dance Music of Ireland" (1907) no. 504
R:Reel
Z:Transcribed by Frank Nordberg - http://www.musicaviva.com
N:Music Aviva - The Internet center for free sheet music downloads
M:C|
L:1/8
K:G
D(G{A}G)F D(G{A}G)F|=F2AF cFAF|D(G{A}G)F DGGg|[1 fdcA BGA2||g2bg dgbg|
f2af dfaf|g2bg dgbg|agfa g2(ga)|bgaf gdde|fefd cAGF|dggf (3gab ag|fdcA BG
A"_D.C."F"^segno" |]
